packages/appstore/src/assets/svgs/wallet/payment-agent-light.svg

<svg width="128" height="80" viewBox="0 0 128 80" fill="none" xmlns="http://www.w3.org/2000/svg">
<path d="M37.3333 36H10.6667C9.19333 36 8 37.1933 8 38.6667V55.3333C8 56.8067 9.19333 58 10.6667 58H23.3333V56.3C23.3333 54.1267 25.1267 52.36 27.3067 52.36H31.2867C33.46 52.36 35.2267 54.1267 35.2267 56.3V58H37.3333C38.8067 58 40 56.8067 40 55.3333V38.6667C40 37.1933 38.8067 36 37.3333 36ZM30.18 50.7467C27.3733 51.3667 24.9267 48.92 25.5467 46.1133C25.86 44.7 27 43.5533 28.42 43.24C31.2267 42.62 33.6733 45.0667 33.0533 47.8733C32.7333 49.2867 31.5933 50.4333 30.18 50.7467ZM15.32 48.5533V49.98H13.54V48.56C12.2267 48.3133 11.4 47.5067 11.3467 46.3267H12.8933C12.9667 46.9467 13.5933 47.34 14.4933 47.34C15.32 47.34 15.9133 46.94 15.9133 46.3667C15.9133 45.88 15.5333 45.6 14.5933 45.3933L13.6 45.18C12.2067 44.8867 11.5267 44.1667 11.5267 43C11.5267 41.8333 12.3 40.9933 13.54 40.72V39.28H15.32V40.72C16.5267 40.9867 17.3267 41.8133 17.3667 42.9133H15.8667C15.7933 42.3133 15.2267 41.9067 14.46 41.9067C13.6867 41.9067 13.1333 42.28 13.1333 42.86C13.1333 43.3333 13.5 43.5933 14.3933 43.7933L15.3133 43.9867C16.8467 44.3067 17.5067 44.96 17.5067 46.1533C17.5067 47.44 16.6867 48.2933 15.32 48.5533Z" fill="#333333"/>
<path d="M34.6667 31H13.3334C11.8734 31 10.6934 32.18 10.6934 33.64V34.3667H37.3067V33.64C37.3067 32.18 36.1267 31 34.6667 31Z" fill="#5C5C5C"/>
<path d="M31.333 26H16.6664C15.2064 26 14.0264 27.18 14.0264 28.64V29.3667H33.973V28.64C33.973 27.18 32.793 26 31.333 26Z" fill="#858585"/>
<path d="M54.2323 41V29.832H59.5123C60.035 29.832 60.5043 29.9227 60.9203 30.104C61.3363 30.2747 61.6883 30.5147 61.9763 30.824C62.275 31.1334 62.5043 31.512 62.6643 31.96C62.8243 32.3974 62.9043 32.8774 62.9043 33.4C62.9043 33.9334 62.8243 34.4187 62.6643 34.856C62.5043 35.2934 62.275 35.6667 61.9763 35.976C61.6883 36.2854 61.3363 36.5307 60.9203 36.712C60.5043 36.8827 60.035 36.968 59.5123 36.968H56.6643V41H54.2323ZM56.6643 34.856H59.2243C59.587 34.856 59.8696 34.7654 60.0723 34.584C60.2856 34.392 60.3923 34.1147 60.3923 33.752V33.048C60.3923 32.6854 60.2856 32.4134 60.0723 32.232C59.8696 32.04 59.587 31.944 59.2243 31.944H56.6643V34.856Z" fill="#333333"/>
<path d="M70.5779 41C70.1513 41 69.7939 40.8667 69.5059 40.6C69.2286 40.3334 69.0526 39.976 68.9779 39.528H68.8819C68.7539 40.072 68.4713 40.488 68.0339 40.776C67.5966 41.0534 67.0579 41.192 66.4179 41.192C65.5753 41.192 64.9299 40.968 64.4819 40.52C64.0339 40.072 63.8099 39.48 63.8099 38.744C63.8099 37.8587 64.1299 37.2027 64.7699 36.776C65.4206 36.3387 66.3006 36.12 67.4099 36.12H68.7379V35.592C68.7379 35.1867 68.6313 34.8667 68.4179 34.632C68.2046 34.3867 67.8473 34.264 67.3459 34.264C66.8766 34.264 66.5033 34.3654 66.2259 34.568C65.9486 34.7707 65.7193 35 65.5379 35.256L64.1299 34.008C64.4713 33.5067 64.8979 33.1174 65.4099 32.84C65.9326 32.552 66.6366 32.408 67.5219 32.408C68.7166 32.408 69.6126 32.6694 70.2099 33.192C70.8073 33.7147 71.1059 34.4774 71.1059 35.48V39.16H71.8899V41H70.5779ZM67.2979 39.544C67.6926 39.544 68.0286 39.4587 68.3059 39.288C68.5939 39.1174 68.7379 38.84 68.7379 38.456V37.464H67.5859C66.6579 37.464 66.1939 37.7787 66.1939 38.408V38.648C66.1939 38.9574 66.2899 39.1867 66.4819 39.336C66.6739 39.4747 66.9459 39.544 67.2979 39.544Z" fill="#333333"/>
<path d="M78.4747 32.6H80.6827L77.4507 42.296C77.2374 42.9467 76.9334 43.4267 76.5387 43.736C76.1547 44.0454 75.6 44.2 74.8747 44.2H73.4027V42.36H74.9867L75.2747 41.432L72.3307 32.6H74.6827L75.9147 36.52L76.5227 38.952H76.6187L77.2427 36.52L78.4747 32.6Z" fill="#333333"/>
<path d="M81.8856 41V32.6H84.2536V34.024H84.3496C84.4989 33.576 84.7549 33.1974 85.1176 32.888C85.4802 32.568 85.9762 32.408 86.6056 32.408C87.1816 32.408 87.6722 32.552 88.0776 32.84C88.4829 33.128 88.7762 33.5494 88.9576 34.104H89.0056C89.0802 33.8694 89.1922 33.6507 89.3416 33.448C89.5016 33.2347 89.6936 33.0534 89.9176 32.904C90.1416 32.7547 90.3922 32.6374 90.6696 32.552C90.9469 32.456 91.2456 32.408 91.5656 32.408C92.3762 32.408 92.9949 32.696 93.4216 33.272C93.8589 33.848 94.0776 34.6694 94.0776 35.736V41H91.7096V35.928C91.7096 34.8614 91.3256 34.328 90.5576 34.328C90.2056 34.328 89.8856 34.4294 89.5976 34.632C89.3096 34.8347 89.1656 35.144 89.1656 35.56V41H86.7976V35.928C86.7976 34.8614 86.4136 34.328 85.6456 34.328C85.4749 34.328 85.3042 34.3547 85.1336 34.408C84.9736 34.4507 84.8242 34.5254 84.6856 34.632C84.5576 34.7387 84.4509 34.872 84.3656 35.032C84.2909 35.1814 84.2536 35.3574 84.2536 35.56V41H81.8856Z" fill="#333333"/>
<path d="M99.6864 41.192C99.0464 41.192 98.4758 41.0907 97.9744 40.888C97.4731 40.6747 97.0464 40.3814 96.6944 40.008C96.3531 39.624 96.0918 39.16 95.9104 38.616C95.7398 38.072 95.6544 37.464 95.6544 36.792C95.6544 36.1307 95.7398 35.5334 95.9104 35C96.0811 34.456 96.3318 33.992 96.6624 33.608C97.0038 33.224 97.4198 32.9307 97.9104 32.728C98.4011 32.5147 98.9611 32.408 99.5904 32.408C100.284 32.408 100.876 32.5254 101.366 32.76C101.868 32.9947 102.273 33.3094 102.582 33.704C102.902 34.0987 103.132 34.5574 103.27 35.08C103.42 35.592 103.494 36.1307 103.494 36.696V37.4H98.1024V37.528C98.1024 38.0827 98.2518 38.5254 98.5504 38.856C98.8491 39.176 99.3184 39.336 99.9584 39.336C100.449 39.336 100.849 39.24 101.158 39.048C101.468 38.8454 101.756 38.6054 102.022 38.328L103.206 39.8C102.833 40.2374 102.342 40.5787 101.734 40.824C101.137 41.0694 100.454 41.192 99.6864 41.192ZM99.6384 34.152C99.1584 34.152 98.7798 34.312 98.5024 34.632C98.2358 34.9414 98.1024 35.3574 98.1024 35.88V36.008H101.046V35.864C101.046 35.352 100.929 34.9414 100.694 34.632C100.47 34.312 100.118 34.152 99.6384 34.152Z" fill="#333333"/>
<path d="M105.167 41V32.6H107.535V34.024H107.631C107.78 33.5867 108.041 33.208 108.415 32.888C108.788 32.568 109.305 32.408 109.967 32.408C110.831 32.408 111.481 32.696 111.919 33.272C112.367 33.848 112.591 34.6694 112.591 35.736V41H110.223V35.928C110.223 35.384 110.137 34.984 109.967 34.728C109.796 34.4614 109.492 34.328 109.055 34.328C108.863 34.328 108.676 34.3547 108.495 34.408C108.313 34.4507 108.148 34.5254 107.999 34.632C107.86 34.7387 107.748 34.872 107.663 35.032C107.577 35.1814 107.535 35.3574 107.535 35.56V41H105.167Z" fill="#333333"/>
<path d="M117.642 41C116.821 41 116.197 40.792 115.77 40.376C115.354 39.96 115.146 39.352 115.146 38.552V34.44H113.962V32.6H114.554C114.874 32.6 115.093 32.5254 115.21 32.376C115.327 32.216 115.386 31.992 115.386 31.704V30.328H117.514V32.6H119.178V34.44H117.514V39.16H119.05V41H117.642Z" fill="#333333"/>
<path d="M61.1123 56L60.3123 53.344H56.5843L55.7843 56H53.3203L57.0003 44.832H60.0083L63.6403 56H61.1123ZM58.4723 47.04H58.3923L57.1603 51.28H59.7203L58.4723 47.04Z" fill="#333333"/>
<path d="M72.8334 56.608C72.8334 57.056 72.7534 57.4507 72.5934 57.792C72.4441 58.1334 72.1934 58.4214 71.8414 58.656C71.4894 58.9014 71.0201 59.0827 70.4334 59.2C69.8574 59.328 69.1428 59.392 68.2894 59.392C67.5641 59.392 66.9454 59.344 66.4334 59.248C65.9321 59.1627 65.5214 59.0347 65.2014 58.864C64.8921 58.704 64.6628 58.5014 64.5134 58.256C64.3748 58.0214 64.3054 57.7494 64.3054 57.44C64.3054 56.9707 64.4441 56.6027 64.7214 56.336C64.9988 56.0694 65.3828 55.904 65.8734 55.84V55.664C65.4681 55.5894 65.1641 55.4187 64.9614 55.152C64.7588 54.8747 64.6574 54.5547 64.6574 54.192C64.6574 53.968 64.7001 53.776 64.7854 53.616C64.8814 53.4454 64.9988 53.3014 65.1374 53.184C65.2868 53.056 65.4574 52.9547 65.6494 52.88C65.8414 52.8054 66.0334 52.7467 66.2254 52.704V52.64C65.7134 52.4054 65.3348 52.0854 65.0894 51.68C64.8441 51.264 64.7214 50.784 64.7214 50.24C64.7214 49.3867 65.0148 48.704 65.6014 48.192C66.1988 47.6694 67.1054 47.408 68.3214 47.408C68.8761 47.408 69.3508 47.4614 69.7454 47.568V47.248C69.7454 46.8 69.8521 46.48 70.0654 46.288C70.2894 46.0854 70.6041 45.984 71.0094 45.984H72.3374V47.744H70.4814V47.84C70.9721 48.0747 71.3348 48.4 71.5694 48.816C71.8041 49.2214 71.9214 49.696 71.9214 50.24C71.9214 51.0827 71.6228 51.76 71.0254 52.272C70.4388 52.7734 69.5374 53.024 68.3214 53.024C67.7774 53.024 67.2814 52.9654 66.8334 52.848C66.5881 53.008 66.4654 53.232 66.4654 53.52C66.4654 53.7227 66.5401 53.8827 66.6894 54C66.8494 54.1067 67.1108 54.16 67.4734 54.16H69.9054C70.9294 54.16 71.6708 54.3734 72.1294 54.8C72.5988 55.2267 72.8334 55.8294 72.8334 56.608ZM70.6094 56.928C70.6094 56.6827 70.5134 56.496 70.3214 56.368C70.1294 56.24 69.7934 56.176 69.3134 56.176H66.4334C66.3268 56.2827 66.2468 56.4 66.1934 56.528C66.1508 56.6667 66.1294 56.8 66.1294 56.928C66.1294 57.2374 66.2628 57.4614 66.5294 57.6C66.7961 57.7494 67.2494 57.824 67.8894 57.824H68.8494C69.4894 57.824 69.9428 57.7494 70.2094 57.6C70.4761 57.4614 70.6094 57.2374 70.6094 56.928ZM68.3214 51.472C68.7908 51.472 69.1374 51.376 69.3614 51.184C69.5961 50.9814 69.7134 50.6934 69.7134 50.32V50.128C69.7134 49.7547 69.5961 49.472 69.3614 49.28C69.1374 49.0774 68.7908 48.976 68.3214 48.976C67.8521 48.976 67.5001 49.0774 67.2654 49.28C67.0414 49.472 66.9294 49.7547 66.9294 50.128V50.32C66.9294 50.6934 67.0414 50.9814 67.2654 51.184C67.5001 51.376 67.8521 51.472 68.3214 51.472Z" fill="#333333"/>
<path d="M77.2958 56.192C76.6558 56.192 76.0851 56.0907 75.5838 55.888C75.0825 55.6747 74.6558 55.3814 74.3038 55.008C73.9625 54.624 73.7011 54.16 73.5198 53.616C73.3491 53.072 73.2638 52.464 73.2638 51.792C73.2638 51.1307 73.3491 50.5334 73.5198 50C73.6905 49.456 73.9411 48.992 74.2718 48.608C74.6131 48.224 75.0291 47.9307 75.5198 47.728C76.0105 47.5147 76.5705 47.408 77.1998 47.408C77.8931 47.408 78.4851 47.5254 78.9758 47.76C79.4771 47.9947 79.8825 48.3094 80.1918 48.704C80.5118 49.0987 80.7411 49.5574 80.8798 50.08C81.0291 50.592 81.1038 51.1307 81.1038 51.696V52.4H75.7118V52.528C75.7118 53.0827 75.8611 53.5254 76.1598 53.856C76.4585 54.176 76.9278 54.336 77.5678 54.336C78.0585 54.336 78.4585 54.24 78.7678 54.048C79.0771 53.8454 79.3651 53.6054 79.6318 53.328L80.8158 54.8C80.4425 55.2374 79.9518 55.5787 79.3438 55.824C78.7465 56.0694 78.0638 56.192 77.2958 56.192ZM77.2478 49.152C76.7678 49.152 76.3891 49.312 76.1118 49.632C75.8451 49.9414 75.7118 50.3574 75.7118 50.88V51.008H78.6558V50.864C78.6558 50.352 78.5385 49.9414 78.3038 49.632C78.0798 49.312 77.7278 49.152 77.2478 49.152Z" fill="#333333"/>
<path d="M82.7762 56V47.6H85.1442V49.024H85.2402C85.3895 48.5867 85.6509 48.208 86.0242 47.888C86.3975 47.568 86.9149 47.408 87.5762 47.408C88.4402 47.408 89.0909 47.696 89.5282 48.272C89.9762 48.848 90.2002 49.6694 90.2002 50.736V56H87.8322V50.928C87.8322 50.384 87.7469 49.984 87.5762 49.728C87.4055 49.4614 87.1015 49.328 86.6642 49.328C86.4722 49.328 86.2855 49.3547 86.1042 49.408C85.9229 49.4507 85.7575 49.5254 85.6082 49.632C85.4695 49.7387 85.3575 49.872 85.2722 50.032C85.1869 50.1814 85.1442 50.3574 85.1442 50.56V56H82.7762Z" fill="#333333"/>
<path d="M95.2514 56C94.4301 56 93.8061 55.792 93.3794 55.376C92.9634 54.96 92.7554 54.352 92.7554 53.552V49.44H91.5714V47.6H92.1634C92.4834 47.6 92.7021 47.5254 92.8194 47.376C92.9368 47.216 92.9954 46.992 92.9954 46.704V45.328H95.1234V47.6H96.7874V49.44H95.1234V54.16H96.6594V56H95.2514Z" fill="#333333"/>
</svg>

<svg width="128" height="80" fill="none" xmlns="http://www.w3.org/2000/svg"><path d="M37.333 36H10.667A2.666 2.666 0 0 0 8 38.667v16.666A2.666 2.666 0 0 0 10.667 58h12.666v-1.7c0-2.173 1.794-3.94 3.974-3.94h3.98a3.943 3.943 0 0 1 3.94 3.94V58h2.106A2.666 2.666 0 0 0 40 55.333V38.667A2.666 2.666 0 0 0 37.333 36zM30.18 50.747a3.862 3.862 0 0 1-4.633-4.634 3.82 3.82 0 0 1 2.873-2.873 3.862 3.862 0 0 1 4.633 4.633c-.32 1.414-1.46 2.56-2.873 2.874zm-14.86-2.194v1.427h-1.78v-1.42c-1.313-.247-2.14-1.053-2.193-2.233h1.546c.074.62.7 1.013 1.6 1.013.827 0 1.42-.4 1.42-.973 0-.487-.38-.767-1.32-.974l-.993-.213c-1.393-.293-2.073-1.013-2.073-2.18 0-1.167.773-2.007 2.013-2.28v-1.44h1.78v1.44c1.207.267 2.007 1.093 2.047 2.193h-1.5c-.074-.6-.64-1.006-1.407-1.006-.773 0-1.327.373-1.327.953 0 .473.367.733 1.26.933l.92.194c1.534.32 2.194.973 2.194 2.166 0 1.287-.82 2.14-2.187 2.4z" fill="#333"/><path d="M34.667 31H13.333c-1.46 0-2.64 1.18-2.64 2.64v.727h26.614v-.727c0-1.46-1.18-2.64-2.64-2.64z" fill="#5C5C5C"/><path d="M31.333 26H16.666c-1.46 0-2.64 1.18-2.64 2.64v.727h19.947v-.727c0-1.46-1.18-2.64-2.64-2.64z" fill="#858585"/><path d="M54.232 41V29.832h5.28c.523 0 .992.09 1.408.272.416.17.768.41 1.056.72.299.31.528.688.688 1.136.16.437.24.917.24 1.44 0 .533-.08 1.019-.24 1.456-.16.437-.389.81-.688 1.12a3.13 3.13 0 0 1-1.056.736 3.68 3.68 0 0 1-1.408.256h-2.848V41h-2.432zm2.432-6.144h2.56c.363 0 .646-.09.848-.272.214-.192.32-.47.32-.832v-.704c0-.363-.106-.635-.32-.816-.202-.192-.485-.288-.848-.288h-2.56v2.912zM70.578 41c-.427 0-.784-.133-1.072-.4-.277-.267-.453-.624-.528-1.072h-.096c-.128.544-.41.96-.848 1.248-.437.277-.976.416-1.616.416-.843 0-1.488-.224-1.936-.672-.448-.448-.672-1.04-.672-1.776 0-.885.32-1.541.96-1.968.65-.437 1.53-.656 2.64-.656h1.328v-.528c0-.405-.107-.725-.32-.96-.213-.245-.57-.368-1.072-.368-.47 0-.843.101-1.12.304a3.01 3.01 0 0 0-.688.688l-1.408-1.248c.341-.501.768-.89 1.28-1.168.523-.288 1.227-.432 2.112-.432 1.195 0 2.09.261 2.688.784.597.523.896 1.285.896 2.288v3.68h.784V41h-1.312zm-3.28-1.456c.395 0 .73-.085 1.008-.256.288-.17.432-.448.432-.832v-.992h-1.152c-.928 0-1.392.315-1.392.944v.24c0 .31.096.539.288.688.192.139.464.208.816.208zM78.475 32.6h2.208l-3.232 9.696c-.214.65-.518 1.13-.912 1.44-.384.31-.939.464-1.664.464h-1.472v-1.84h1.584l.288-.928L72.33 32.6h2.352l1.232 3.92.608 2.432h.096l.624-2.432 1.232-3.92zM81.886 41v-8.4h2.368v1.424h.096c.149-.448.405-.827.768-1.136.362-.32.858-.48 1.488-.48.576 0 1.066.144 1.472.432.405.288.698.71.88 1.264h.048a2.247 2.247 0 0 1 .912-1.2c.224-.15.474-.267.752-.352a2.72 2.72 0 0 1 .896-.144c.81 0 1.429.288 1.856.864.437.576.656 1.397.656 2.464V41H91.71v-5.072c0-1.067-.384-1.6-1.152-1.6a1.63 1.63 0 0 0-.96.304c-.288.203-.432.512-.432.928V41h-2.368v-5.072c0-1.067-.384-1.6-1.152-1.6-.171 0-.342.027-.512.08-.16.043-.31.117-.448.224-.128.107-.235.24-.32.4-.075.15-.112.325-.112.528V41h-2.368zM99.686 41.192c-.64 0-1.21-.101-1.712-.304a3.754 3.754 0 0 1-1.28-.88 3.943 3.943 0 0 1-.784-1.392 6.08 6.08 0 0 1-.256-1.824c0-.661.086-1.259.256-1.792.171-.544.422-1.008.752-1.392a3.363 3.363 0 0 1 1.248-.88c.491-.213 1.051-.32 1.68-.32.694 0 1.286.117 1.776.352.502.235.907.55 1.216.944.32.395.55.853.688 1.376.15.512.224 1.05.224 1.616v.704h-5.392v.128c0 .555.15.997.448 1.328.3.32.768.48 1.408.48.491 0 .891-.096 1.2-.288a4.94 4.94 0 0 0 .864-.72l1.184 1.472c-.373.437-.864.779-1.472 1.024-.597.245-1.28.368-2.048.368zm-.048-7.04c-.48 0-.858.16-1.136.48-.266.31-.4.725-.4 1.248v.128h2.944v-.144c0-.512-.117-.923-.352-1.232-.224-.32-.576-.48-1.056-.48zM105.167 41v-8.4h2.368v1.424h.096c.149-.437.41-.816.784-1.136.373-.32.89-.48 1.552-.48.864 0 1.514.288 1.952.864.448.576.672 1.397.672 2.464V41h-2.368v-5.072c0-.544-.086-.944-.256-1.2-.171-.267-.475-.4-.912-.4-.192 0-.379.027-.56.08a1.388 1.388 0 0 0-.496.224c-.139.107-.251.24-.336.4a1.04 1.04 0 0 0-.128.528V41h-2.368zM117.642 41c-.821 0-1.445-.208-1.872-.624-.416-.416-.624-1.024-.624-1.824V34.44h-1.184V32.6h.592c.32 0 .539-.075.656-.224.117-.16.176-.384.176-.672v-1.376h2.128V32.6h1.664v1.84h-1.664v4.72h1.536V41h-1.408zM61.112 56l-.8-2.656h-3.728l-.8 2.656H53.32L57 44.832h3.008L63.64 56h-2.528zm-2.64-8.96h-.08l-1.232 4.24h2.56l-1.248-4.24zM72.833 56.608c0 .448-.08.843-.24 1.184a2 2 0 0 1-.752.864c-.352.245-.82.427-1.408.544-.576.128-1.29.192-2.144.192-.725 0-1.344-.048-1.856-.144-.5-.085-.912-.213-1.232-.384-.309-.16-.538-.363-.688-.608a1.574 1.574 0 0 1-.208-.816c0-.47.14-.837.416-1.104.278-.267.662-.432 1.152-.496v-.176c-.405-.075-.709-.245-.912-.512a1.585 1.585 0 0 1-.304-.96c0-.224.043-.416.128-.576.096-.17.214-.315.352-.432.15-.128.32-.23.512-.304.192-.075.384-.133.576-.176v-.064c-.512-.235-.89-.555-1.136-.96-.245-.416-.368-.896-.368-1.44 0-.853.294-1.536.88-2.048.598-.523 1.504-.784 2.72-.784.555 0 1.03.053 1.424.16v-.32c0-.448.107-.768.32-.96.224-.203.54-.304.944-.304h1.328v1.76h-1.856v.096c.491.235.854.56 1.088.976.235.405.352.88.352 1.424 0 .843-.298 1.52-.896 2.032-.586.501-1.488.752-2.704.752-.544 0-1.04-.059-1.488-.176a.76.76 0 0 0-.368.672c0 .203.075.363.224.48.16.107.422.16.784.16h2.432c1.024 0 1.766.213 2.224.64.47.427.704 1.03.704 1.808zm-2.224.32a.63.63 0 0 0-.288-.56c-.192-.128-.528-.192-1.008-.192h-2.88a1.091 1.091 0 0 0-.24.352 1.361 1.361 0 0 0-.064.4c0 .31.134.533.4.672.267.15.72.224 1.36.224h.96c.64 0 1.094-.075 1.36-.224.267-.139.4-.363.4-.672zm-2.288-5.456c.47 0 .816-.096 1.04-.288.235-.203.352-.49.352-.864v-.192c0-.373-.117-.656-.352-.848-.224-.203-.57-.304-1.04-.304-.469 0-.82.101-1.056.304-.224.192-.336.475-.336.848v.192c0 .373.112.661.336.864.235.192.587.288 1.056.288zM77.296 56.192c-.64 0-1.21-.101-1.712-.304a3.754 3.754 0 0 1-1.28-.88 3.942 3.942 0 0 1-.784-1.392 6.077 6.077 0 0 1-.256-1.824c0-.661.085-1.259.256-1.792.17-.544.421-1.008.752-1.392a3.362 3.362 0 0 1 1.248-.88c.49-.213 1.05-.32 1.68-.32.693 0 1.285.117 1.776.352.501.235.906.55 1.216.944.32.395.55.853.688 1.376.15.512.224 1.05.224 1.616v.704h-5.392v.128c0 .555.15.997.448 1.328.299.32.768.48 1.408.48.49 0 .89-.096 1.2-.288.31-.203.597-.443.864-.72l1.184 1.472c-.374.437-.864.779-1.472 1.024-.597.245-1.28.368-2.048.368zm-.048-7.04c-.48 0-.859.16-1.136.48-.267.31-.4.725-.4 1.248v.128h2.944v-.144c0-.512-.118-.923-.352-1.232-.224-.32-.576-.48-1.056-.48zM82.776 56v-8.4h2.368v1.424h.096c.15-.437.41-.816.784-1.136.373-.32.89-.48 1.552-.48.864 0 1.515.288 1.952.864.448.576.672 1.397.672 2.464V56h-2.368v-5.072c0-.544-.085-.944-.256-1.2-.17-.267-.474-.4-.912-.4-.192 0-.379.027-.56.08a1.396 1.396 0 0 0-.496.224c-.139.107-.25.24-.336.4-.085.15-.128.325-.128.528V56h-2.368zM95.251 56c-.82 0-1.445-.208-1.872-.624-.416-.416-.624-1.024-.624-1.824V49.44h-1.184V47.6h.592c.32 0 .54-.075.656-.224.118-.16.176-.384.176-.672v-1.376h2.128V47.6h1.664v1.84h-1.664v4.72h1.536V56h-1.408z" fill="#333"/></svg>
